packages/merlin-www-assets/imports/vogue/icons/gallery-grid.svg

<svg viewBox="0 0 18 18" xmlns="http://www.w3.org/2000/svg"><title>Gallery Grid</title><path d="m0 7h4v4h-4zm0-3h4v-4h-4zm0 14h4v-4h-4zm7 0h4v-4h-4zm7-7h4v-4h-4zm0 7h4v-4h-4zm-7-7h4v-4h-4zm7-11v4h4v-4zm-7 4h4v-4h-4z"/></svg>

<svg viewBox="0 0 18 18"><title>Gallery Grid</title><path d="M0 7h4v4H0zm0-3h4V0H0zm0 14h4v-4H0zm7 0h4v-4H7zm7-7h4V7h-4zm0 7h4v-4h-4zm-7-7h4V7H7zm7-11v4h4V0zM7 4h4V0H7z"/></svg>
